Adwaita++-Dark/actions/22/insert-math-expression.svg

<svg height="22" viewBox="0 0 22 22" width="22" xmlns="http://www.w3.org/2000/svg">
  <path d="m8 1.9804688c-.91677.0009999-1.8101688.2930099-2.3554688.96875-.54527.67574-.6990481 1.5034906-.7675781 2.4628906-.0338.47264-.0436625.9944194-.0390625 1.5683594h-.8378906c-.554 0-1 .446-1 1 0 .5539999.446 1 1 1h.8886719c.0477 1.3981002.1112781 3.0426002.1113281 5.0000002a1.0001 1.0001 0 1 0 2 0c-.00005-1.9617-.0562925-3.6195-.1015625-5.0000002h1.1015625c.554 0 1-.4460001 1-1 0-.554-.446-1-1-1h-1.1542969c-.007-.5528-.0009562-1.0279813.0273438-1.4257813.0565-.79061.217095-1.2120094.328125-1.3496094s.2174512-.2239494.8007812-.2246093a1.0001 1.0001 0 1 0 -.0019531-2zm.7070312 8.7578122-.7070312.707031 1.4140625 1.414063-1.4140625 1.414063.7070312.707031 1.4140628-1.414063 1.414062 1.414063.707032-.707031-1.414063-1.414063 1.414063-1.414063-.707032-.707031-1.414062 1.414063z" fill="#e6ddff" transform="translate(3 3)"/>
</svg>

<svg xmlns="http://www.w3.org/2000/svg" width="22" height="22" viewBox="0 0 22 22">
 <defs>
  <style id="current-color-scheme" type="text/css">
   .ColorScheme-Text { color:#E6DDFF; } .ColorScheme-Highlight { color:#4285f4; }
  </style>
 </defs>
 <path style="fill:currentColor" class="ColorScheme-Text" d="M 8 1.9804688 C 7.08323 1.9814687 6.1898312 2.2734787 5.6445312 2.9492188 C 5.0992612 3.6249588 4.9454831 4.4527094 4.8769531 5.4121094 C 4.8431531 5.8847494 4.8332906 6.4065288 4.8378906 6.9804688 L 4 6.9804688 C 3.446 6.9804688 3 7.4264688 3 7.9804688 C 3 8.5344687 3.446 8.9804688 4 8.9804688 L 4.8886719 8.9804688 C 4.9363719 10.378569 4.99995 12.023069 5 13.980469 A 1.0001 1.0001 0 1 0 7 13.980469 C 6.99995 12.018769 6.9437075 10.360969 6.8984375 8.9804688 L 8 8.9804688 C 8.554 8.9804688 9 8.5344687 9 7.9804688 C 9 7.4264688 8.554 6.9804688 8 6.9804688 L 6.8457031 6.9804688 C 6.8387031 6.4276688 6.8447469 5.9524875 6.8730469 5.5546875 C 6.9295469 4.7640775 7.0901419 4.3426781 7.2011719 4.2050781 C 7.3122019 4.0674781 7.4186231 3.9811287 8.0019531 3.9804688 A 1.0001 1.0001 0 1 0 8 1.9804688 z M 8.7070312 10.738281 L 8 11.445312 L 9.4140625 12.859375 L 8 14.273438 L 8.7070312 14.980469 L 10.121094 13.566406 L 11.535156 14.980469 L 12.242188 14.273438 L 10.828125 12.859375 L 12.242188 11.445312 L 11.535156 10.738281 L 10.121094 12.152344 L 8.7070312 10.738281 z" transform="translate(3 3)"/>
</svg>
